icon-themes/sifr_svg/cmd/lc_gluevertaligntop.svg

<svg viewBox="0 0 24 24" xmlns="http://www.w3.org/2000/svg"><g fill="#555753"><path d="m2 2h10c0 .7135735.16353 1.3793162.433594 2h-8.433594v16h16v-4.566406c1.185038-.699567 2-1.976737 2-3.433594v10h-20zm8 10c0-1.1.9-2 2-2h4v-4.5410156c-1.236022-.713616-1.998173-2.0317504-2-3.4589844h8c-.0018 1.427234-.763978 2.7453684-2 3.4589844v6.5410156c0 1.1-.91 2-2 2h-6c-1.1 0-2-.9-2-2z"/><path d="m10 18v-4h-4v-4h4v-4h4v4h4v4h-4v4z" opacity=".35"/></g></svg>

<svg xmlns="http://www.w3.org/2000/svg" viewBox="0 0 24 24">
  <path
     style="fill:#555753"
     d="M 2,2 H 12 V 2 C 12,2.7135735 12.16353,3.3793162 12.433594,4 H 4 V 20 H 20 V 15.433594 C 21.185038,14.734027 22,13.456857 22,12 V 22 H 2 Z m 8,10 c 0,-1.1 0.9,-2 2,-2 h 4 V 5.4589844 C 14.763978,4.7453684 14.001827,3.427234 14,2 h 8 C 21.9982,3.427234 21.236022,4.7453684 20,5.4589844 V 12 c 0,1.1 -0.91,2 -2,2 h -6 c -1.1,0 -2,-0.9 -2,-2 z"
     />
  <path
     style="opacity:0.35;fill:#555753"
     d="M 10,18 V 14 H 6 v -4 h 4 V 6 h 4 v 4 h 4 v 4 h -4 v 4 z"
     />
</svg>
